X:58
T:Hunt the Whistle
M:9/8
L:1/8
B:Thompson's Compleat Collection of 200 Favourite Country Dances, vol. 3 (London, 1773)
Z:Transcribed and edited by Flynn Titford-Mock, 2007
Z:abc's:AK/Fiddler's Companion
K:C
g | e2c cec gec | B2G GBG dBG | e2c cec e^fg | ^fga dg^f g2 :|
|: g | a2f fga geg | f2d def ece | B2G GAB cde | Afe dcB c2 :|

